docs/local/img/75.svg

<svg width="177" height="131" viewBox="0 0 177 131" fill="none" xmlns="http://www.w3.org/2000/svg">
<path d="M106.07 69.1523H68.5444V108.446C68.5458 109.151 68.5846 109.856 68.6608 110.557C68.7597 111.639 69.0206 112.7 69.4346 113.704C70.4139 115.947 72.1738 117.037 74.4609 117.492C75.5902 117.7 76.7369 117.797 77.8848 117.782H81.4388C82.2118 117.779 82.983 117.857 83.7396 118.017L83.945 118.072C84.5166 118.202 85.069 118.406 85.5885 118.679L85.8555 118.811C86.9575 119.439 87.831 120.406 88.3481 121.571L88.581 122.116L88.8206 121.571C89.9505 119.031 92.2445 117.748 95.73 117.748H99.2839C104.338 117.748 107.857 116.444 108.515 110.523C108.591 109.821 108.63 109.116 108.631 108.411V69.1523H106.063H106.07ZM107.159 83.8373V108.363C107.161 109.096 107.117 109.829 107.029 110.557C106.412 115.388 103.605 116.423 99.0786 116.423H95.5657C92.7307 116.423 90.5394 117.23 89.0397 118.831L88.5056 119.397L87.9715 118.831C86.4718 117.23 84.2805 116.423 81.4456 116.423H77.9259C73.4269 116.423 70.5987 115.395 69.9824 110.557C69.8938 109.829 69.8503 109.096 69.8523 108.363V70.5946H107.159V83.8373Z" fill="#D73B3B"/>
<path d="M88.4367 80.4756C88.3957 80.3306 88.2382 80.2685 88.2176 80.1098C88.1599 79.6393 88.001 79.1871 87.752 78.7849C87.5328 78.5295 87.3685 78.6468 86.9782 78.6537C86.6988 78.665 86.421 78.6057 86.1701 78.4812C85.6703 78.15 85.0197 78.1845 84.287 79.1713C84.1706 79.3369 83.9789 79.3852 83.9035 79.5716C83.755 79.9722 83.6539 80.3892 83.6022 80.8137C83.5132 81.5383 83.6022 81.6763 83.5474 81.8902C82.7772 81.8045 81.9977 81.8845 81.2603 82.1248C78.9869 83.8155 77.6516 86.8864 78.0076 87.19C78.152 87.3767 78.2463 87.5977 78.2815 87.8318C78.4733 88.5702 78.5897 89.7364 78.6924 90.3989C78.6924 90.3989 78.1377 90.5231 78.2473 90.8682C78.3367 91.094 78.4144 91.3243 78.4801 91.5582C78.4613 91.7148 78.4293 91.8695 78.3843 92.0206C78.4533 92.4228 78.5899 92.8102 78.7882 93.1661C78.9115 93.3731 79.0964 93.3248 79.1238 93.4283C79.8976 96.1887 81.3425 96.1887 81.3425 96.1887L81.3767 97.2652C80.7604 98.0726 79.7333 99.6115 80.0072 99.8944C80.2811 100.177 80.3975 100.219 80.3701 100.391C80.2703 100.563 80.1258 100.704 79.9524 100.798C79.9083 100.854 79.8767 100.919 79.8597 100.988C79.8426 101.057 79.8405 101.129 79.8535 101.199C79.8665 101.269 79.8943 101.336 79.9349 101.394C79.9756 101.452 80.0283 101.501 80.0893 101.537C80.4628 101.645 80.8532 101.68 81.2398 101.64L81.0001 107.002L80.8358 110.577L80.7741 111.957C80.7741 112.095 80.6919 112.385 80.4386 112.15C80.0236 111.729 79.652 111.267 79.3292 110.77C79.2803 110.695 79.2228 110.625 79.1581 110.563C79.0006 110.404 78.8978 110.439 78.8499 110.563C78.8291 110.626 78.8131 110.691 78.802 110.756C78.7334 111.259 78.766 111.771 78.8978 112.261C79.2825 112.913 79.888 113.403 80.6029 113.641C81.2877 113.889 81.2877 113.461 81.3425 112.261C81.3425 112.095 81.3767 111.474 81.4178 110.604C81.4589 109.735 81.5205 108.438 81.5959 107.03C81.678 105.305 81.7807 103.372 81.8766 101.558C81.9651 101.536 82.0521 101.508 82.1368 101.475C83.0179 100.906 83.7506 100.132 84.2733 99.2181C84.513 99.9082 84.4993 101.44 84.8143 101.827C85.2457 102.344 85.4101 102.165 85.7935 103.207C85.8825 103.455 86.7728 103.773 87.1631 104.428C87.9796 105.503 89.0077 106.395 90.1829 107.051C90.712 107.389 91.2634 107.691 91.8332 107.955C92.1414 108.079 92.518 107.754 92.6618 108.189C92.8878 108.817 92.9632 108.755 93.2713 108.879C93.5795 109.003 93.5794 109.838 94.0793 110.211C94.5792 110.584 95.1475 110.397 95.6132 110.598L95.6816 110.639C96.1199 110.874 96.5993 111.474 96.6815 111.426C96.7636 111.377 96.5445 111.032 96.3528 110.639C96.2843 110.508 96.2227 110.37 96.1679 110.239C96.1021 110.013 96.1021 109.774 96.1679 109.549C96.3733 108.382 95.3119 107.651 94.7983 107.078C94.7041 106.982 94.6275 106.87 94.5723 106.747C94.2025 105.719 94.0108 106.291 93.6753 105.808C92.7782 104.49 92.0592 103.048 90.9362 102.192C90.6828 101.999 90.4021 102.02 90.3267 101.93C90.1601 101.496 89.9585 101.076 89.7241 100.674C89.6214 100.515 89.9159 99.9289 89.6762 99.5701C89.5133 99.3308 89.4295 99.0459 89.4365 98.7558C89.4365 97.4584 89.5735 98.2658 89.8679 98.88C90.2117 99.6877 90.6289 100.462 91.1142 101.192C91.2785 101.35 91.5662 101.137 91.6894 101.344C92.2016 102.221 92.8812 102.988 93.689 103.6C93.8876 103.759 93.9971 104.387 94.6545 105.325C95.0919 105.945 95.5748 106.531 96.0993 107.078C96.7745 107.679 97.3441 108.391 97.7839 109.183C98.188 110.246 98.5577 109.976 98.9275 110.515C98.9578 110.564 98.9922 110.61 99.0302 110.653C99.3794 111.143 99.804 111.577 100.167 111.619C100.53 111.66 100.722 111.488 101.03 111.536C101.338 111.584 102.29 112.309 102.358 112.268C102.427 112.226 101.735 111.212 101.769 110.949C101.781 110.849 101.801 110.75 101.831 110.653C101.923 110.396 101.935 110.116 101.865 109.852C101.653 109.307 100.92 109.128 100.098 108.306C99.6876 107.886 99.7972 107.506 99.6534 107.12C99.6563 107.106 99.6563 107.092 99.6534 107.078C99.1535 105.767 98.77 104.104 97.6469 102.496C97.2566 101.937 96.9622 101.806 96.9006 101.309C96.7589 100.544 96.51 99.8024 96.161 99.1077C96.0994 98.7627 96.565 98.2589 96.4007 97.9346C95.4857 96.1335 94.7516 94.2448 94.2094 92.2966C94.0109 91.6066 92.8878 91.1511 92.8878 90.5507C92.8878 89.9503 91.9771 89.6122 91.9839 89.5363C92.0905 89.0142 92.141 88.4821 92.1346 87.9491C92.1292 87.6125 92.0901 87.2773 92.0181 86.9485C91.7579 85.7754 90.3473 84.6298 88.1765 83.084C88.3664 82.2282 88.4538 81.3524 88.4367 80.4756ZM81.678 91.6825C81.5685 91.503 81.6095 90.9234 81.5548 90.8199C81.5 90.7163 81.3767 90.668 81.3767 90.53C81.4053 89.9652 81.4693 89.4029 81.5684 88.8462C81.6095 89.8676 82.849 93.456 82.849 93.456C82.849 93.456 81.7807 91.8481 81.678 91.6825Z" fill="#D73B3B"/>
<path d="M85.2947 18.8203C85.7398 15.2664 85.2947 7.64788 85.2947 7.64788V7.28906H39.8461V31.8559H56.3287V20.5041H68.8122C66.8537 42.5866 51.3709 60.8531 48.7277 83.8396H64.9226V65.5111H70.0037C74.8245 50.4674 82.6857 39.6607 85.2947 18.8203Z" fill="#D73B3B"/>
<path d="M117.543 47.5621V68.5613C117.543 69.1323 117.317 69.6799 116.917 70.0837C116.516 70.4875 115.973 70.7143 115.406 70.7143H112.277V83.8258H119.255C123.173 83.824 126.93 82.2542 129.699 79.4617C132.469 76.6691 134.025 72.8823 134.025 68.9339V47.2516C134.023 43.2525 132.447 39.4177 129.641 36.5892C126.836 33.7608 123.031 32.1701 119.063 32.1664H105.963V20.5041H134.08V7.28906H89.4668V45.4091H115.392C115.674 45.4073 115.953 45.4616 116.214 45.569C116.475 45.6763 116.712 45.8347 116.912 46.0348C117.112 46.2349 117.27 46.4729 117.379 46.735C117.487 46.9971 117.543 47.2782 117.543 47.5621Z" fill="#D73B3B"/>
<path d="M37.8469 82.7639L42.4554 78.0369C42.7557 77.7303 42.9592 77.341 43.0402 76.9181C43.1212 76.4951 43.076 76.0575 42.9105 75.6603C42.7449 75.2632 42.4664 74.9244 42.11 74.6866C41.7536 74.4488 41.3353 74.3227 40.9078 74.3242H12.5102L18.1596 83.9854L12.5102 93.4878H32.3687V104.322C32.3687 105.036 32.65 105.72 33.1509 106.225C33.6517 106.73 34.331 107.013 35.0393 107.013H64.9571V87.8567H39.9628C39.3778 87.8557 38.8061 87.6808 38.3194 87.3538C37.8326 87.0268 37.4525 86.5622 37.2266 86.0185C37.0006 85.4747 36.939 84.8758 37.0493 84.2969C37.1597 83.7179 37.4371 83.1847 37.8469 82.7639ZM38.244 102.983H36.3198V93.2463H35.4639V92.294L36.3198 91.5279H38.244V102.983ZM55.9386 92.6321L57.2191 91.5073H61.6428L62.67 92.6114V94.4815H60.7458V93.2049H57.8628V95.9652H61.3894L62.67 97.09V102.017L61.3894 102.983H57.2191L55.9112 101.838L55.9386 92.6321ZM47.9268 91.5073H49.8373V97.3454H52.2409V91.5073H54.1651V97.3454H54.8498V99.0636H54.1651V102.963H52.2409V99.0636H49.221L47.9268 97.9388V91.5073ZM45.1877 91.5073L46.4682 92.6528V101.838L45.1877 102.963H40.764L39.7368 101.858V99.9883H41.6611V101.265H44.544V98.4219H41.0174L39.7368 97.297V92.4665L41.0174 91.5142L45.1877 91.5073Z" fill="#D73B3B"/>
<path d="M127.488 93.2441H124.598V101.27H127.488V93.2441Z" fill="#D73B3B"/>
<path d="M159.024 83.9775L164.673 74.3164H136.276C135.848 74.3149 135.43 74.441 135.074 74.6788C134.717 74.9166 134.439 75.2554 134.273 75.6525C134.108 76.0497 134.062 76.4873 134.143 76.9103C134.224 77.3332 134.428 77.7225 134.728 78.0291L139.337 82.7561C139.747 83.1773 140.024 83.7112 140.135 84.2907C140.245 84.8703 140.182 85.4698 139.956 86.0138C139.729 86.5579 139.348 87.0223 138.86 87.3488C138.372 87.6753 137.799 87.8493 137.214 87.8489H112.261V106.978H142.192C142.901 106.978 143.58 106.694 144.081 106.19C144.581 105.685 144.863 105 144.863 104.287V93.4869H164.687L159.024 83.9775ZM121.32 97.2961L120.04 98.4209H116.506V101.264H119.396V100.263H121.32V102.982H114.582V97.8482L115.869 96.7026H119.396V93.2522H116.506V94.9429H114.582V92.6588L115.869 91.5339H120.04L121.32 92.6795V97.2961ZM129.401 101.858L128.12 102.982H123.95L122.669 101.858V92.6726L123.95 91.527H128.12L129.401 92.6726V101.858ZM137.488 97.2961L136.207 98.4209H132.681V101.264H135.57V100.263H137.488V102.982H130.756V97.8482L132.037 96.7026H135.57V93.2522H132.681V94.9429H130.756V92.6588L132.037 91.5339H136.207L137.488 92.6795V97.2961ZM141.596 102.982H139.679V93.2453H138.768V92.293L139.624 91.527H141.542L141.596 102.982Z" fill="#D73B3B"/>
<path d="M60.7444 97.6914H57.8615V101.266H60.7444V97.6914Z" fill="#D73B3B"/>
<path d="M105.957 57.0785V56.7266H105.6H89.8232H89.474V57.0785V65.5113H105.957V57.0785Z" fill="#D73B3B"/>
<path d="M167.009 83.9417L176.685 67.4143H140.871V47.2502C140.879 43.103 139.721 39.0384 137.531 35.5272C135.341 32.016 132.209 29.2017 128.498 27.4104H140.947V0.373047H32.9851V38.7622H57.0755C55.706 42.254 54.1789 45.7734 52.6108 49.3687C49.7603 55.5874 47.2458 61.957 45.0782 68.4494C43.7829 67.7666 42.3423 67.4114 40.8806 67.4143H0.478807L10.1547 83.9417L0.396637 100.386H25.4731V104.306C25.4767 106.853 26.4822 109.294 28.269 111.094C30.0558 112.895 32.4782 113.908 35.0052 113.912H62.225C63.5945 119.398 67.5252 124.781 77.8927 124.781H81.4466C81.6918 124.776 81.9369 124.793 82.1794 124.829L83.1586 127.072C83.6224 128.133 84.3824 129.035 85.3459 129.668C86.3095 130.301 87.4351 130.638 88.5855 130.638C89.7358 130.638 90.8614 130.301 91.825 129.668C92.7885 129.035 93.5485 128.133 94.0123 127.072L94.9983 124.822C95.2455 124.786 95.4951 124.77 95.7448 124.774H99.2919C109.659 124.774 113.617 119.391 114.96 113.905H142.193C144.719 113.901 147.141 112.888 148.927 111.087C150.713 109.286 151.717 106.845 151.718 104.299V100.386H176.802L167.009 83.9417ZM148.397 97.0532V104.313C148.395 105.974 147.74 107.567 146.574 108.742C145.408 109.916 143.828 110.577 142.179 110.579H112.159C111.145 121.441 102.312 121.448 99.2919 121.448H95.7448C92.8756 121.448 92.3688 122.579 92.1292 123.124L90.9856 125.74C90.7844 126.211 90.4497 126.612 90.0232 126.892C89.5968 127.172 89.0978 127.318 88.5888 127.313C88.079 127.319 87.579 127.171 87.1523 126.89C86.7257 126.609 86.3915 126.206 86.1921 125.733L85.0349 123.09C84.8226 122.607 84.309 121.448 81.4466 121.448H77.8927C74.866 121.448 66.0392 121.448 65.0257 110.579H35.0052C33.3567 110.577 31.7762 109.916 30.6106 108.742C29.4449 107.567 28.7893 105.974 28.7874 104.313V97.0326H6.2446L14.0305 83.9555L6.2994 70.7474H40.908C42.0332 70.7455 43.1337 71.0793 44.0708 71.7069C45.008 72.3345 45.7398 73.2276 46.1739 74.2737C46.3587 74.7162 46.4897 75.1796 46.5642 75.6538C48.6185 66.8139 52.1793 58.6503 55.6443 50.6937C59.5681 41.7226 63.2933 33.1587 64.7861 24.0704H59.8762V35.4222H36.2994V3.67851H137.612V24.0428H109.495V28.618H119.082C123.985 28.618 128.688 30.5811 132.156 34.0753C135.623 37.5695 137.571 42.3086 137.571 47.2502V68.9532C137.571 69.5605 137.543 70.1608 137.489 70.7543H170.899L163.168 83.9624L170.954 97.0326L148.397 97.0532Z" fill="#D73B3B"/>
<path d="M44.5639 93.2441H41.681V96.7084H44.5639V93.2441Z" fill="#D73B3B"/>
</svg>

<svg width="177" height="131" viewBox="0 0 177 131" fill="none" xmlns="http://www.w3.org/2000/svg"><path d="M106.07 69.152H68.544v39.294c.002.705.04 1.41.117 2.111.099 1.082.36 2.143.774 3.147.979 2.243 2.739 3.333 5.026 3.788a17.63 17.63 0 003.424.29h3.554c.773-.003 1.544.075 2.3.235l.206.055c.572.13 1.124.334 1.644.607l.267.132a5.955 5.955 0 012.492 2.76l.233.545.24-.545c1.13-2.54 3.424-3.823 6.909-3.823h3.554c5.054 0 8.573-1.304 9.231-7.225.076-.702.115-1.407.116-2.112V69.152h-2.568.007zm1.089 14.685v24.526a17.88 17.88 0 01-.13 2.194c-.617 4.831-3.424 5.866-7.95 5.866h-3.513c-2.835 0-5.027.807-6.526 2.408l-.534.566-.534-.566c-1.5-1.601-3.691-2.408-6.526-2.408h-3.52c-4.5 0-7.327-1.028-7.944-5.866a17.763 17.763 0 01-.13-2.194V70.595h37.307v13.242z" fill="#D73B3B"/><path d="M88.437 80.476c-.041-.145-.199-.207-.22-.366a3.274 3.274 0 00-.465-1.325c-.22-.255-.383-.138-.774-.131a1.666 1.666 0 01-.808-.173c-.5-.331-1.15-.296-1.883.69-.116.166-.308.214-.384.4a5.42 5.42 0 00-.3 1.243c-.09.724 0 .862-.056 1.076a5.44 5.44 0 00-2.287.235c-2.273 1.69-3.608 4.761-3.252 5.065.144.187.238.408.273.642.192.738.309 1.904.411 2.567 0 0-.554.124-.445.47.09.225.167.455.233.69-.019.156-.05.31-.096.462.07.402.206.79.404 1.145.124.207.308.159.336.262.774 2.76 2.219 2.76 2.219 2.76l.034 1.077c-.617.808-1.644 2.347-1.37 2.63.274.282.39.324.363.496-.1.172-.244.313-.418.407a.501.501 0 00.137.739 3.02 3.02 0 001.15.103L81 107.002l-.164 3.575-.062 1.38c0 .138-.082.428-.335.193a8.77 8.77 0 01-1.11-1.38 1.179 1.179 0 00-.17-.207c-.158-.159-.261-.124-.31 0-.02.063-.036.128-.047.193a3.812 3.812 0 00.096 1.505c.385.652.99 1.142 1.705 1.38.685.248.685-.18.74-1.38 0-.166.034-.787.075-1.657.04-.869.102-2.166.178-3.574.082-1.725.185-3.658.28-5.472a2.14 2.14 0 00.26-.083 6.566 6.566 0 002.137-2.257c.24.69.226 2.222.541 2.609.432.517.596.338.98 1.38.088.248.979.566 1.37 1.221a9.773 9.773 0 003.019 2.623c.529.338 1.08.64 1.65.904.308.124.685-.201.829.234.226.628.301.566.61.69.307.124.307.959.807 1.332.5.373 1.069.186 1.534.387l.069.041c.438.235.917.835 1 .787.082-.049-.138-.394-.33-.787a5.207 5.207 0 01-.184-.4 1.23 1.23 0 010-.69c.205-1.167-.856-1.898-1.37-2.471a1.138 1.138 0 01-.226-.331c-.37-1.028-.561-.456-.897-.939-.897-1.318-1.616-2.76-2.739-3.616-.253-.193-.534-.172-.61-.262a8.643 8.643 0 00-.602-1.256c-.103-.159.192-.745-.048-1.104a1.388 1.388 0 01-.24-.814c0-1.298.137-.49.432.124.344.808.76 1.582 1.246 2.312.164.158.452-.055.575.152a7.705 7.705 0 002 2.256c.199.159.308.787.966 1.725.437.62.92 1.206 1.444 1.753a8.05 8.05 0 011.685 2.105c.404 1.063.774.793 1.143 1.332a.99.99 0 00.103.138c.35.49.774.924 1.137.966.363.041.555-.131.863-.083.308.048 1.26.773 1.328.732.069-.042-.623-1.056-.589-1.319.012-.1.032-.199.062-.296.092-.257.104-.537.034-.801-.212-.545-.945-.724-1.767-1.546-.41-.42-.3-.8-.445-1.186a.102.102 0 000-.042c-.5-1.311-.883-2.974-2.006-4.582-.39-.559-.685-.69-.746-1.187a8.253 8.253 0 00-.74-2.201c-.062-.345.404-.85.24-1.173a30.508 30.508 0 01-2.192-5.638c-.198-.69-1.321-1.146-1.321-1.746 0-.6-.91-.939-.904-1.015a7.485 7.485 0 00.15-1.587 5.057 5.057 0 00-.116-1c-.26-1.174-1.67-2.32-3.841-3.865.19-.856.277-1.732.26-2.608zm-6.759 11.207c-.11-.18-.069-.76-.123-.863-.055-.104-.178-.152-.178-.29.028-.565.092-1.127.191-1.684.041 1.022 1.281 4.61 1.281 4.61s-1.068-1.608-1.171-1.773zm3.617-72.863c.445-3.554 0-11.172 0-11.172v-.359H39.846v24.567H56.33V20.504h12.483c-1.958 22.083-17.441 40.35-20.084 63.336h16.195V65.51h5.08c4.822-15.044 12.683-25.85 15.292-46.69zm32.248 28.742v21c0 .57-.226 1.118-.626 1.522-.401.403-.944.63-1.511.63h-3.129v13.112h6.978a14.717 14.717 0 0010.444-4.364 14.95 14.95 0 004.326-10.528V47.252a15.15 15.15 0 00-4.384-10.663 14.917 14.917 0 00-10.578-4.423h-13.1V20.504h28.117V7.29H89.467v38.12h25.925a2.123 2.123 0 011.52.626 2.165 2.165 0 01.631 1.527z" fill="#D73B3B"/><path d="M37.847 82.764l4.608-4.727a2.187 2.187 0 00.456-2.377 2.177 2.177 0 00-.801-.973 2.152 2.152 0 00-1.202-.363H12.51l5.65 9.661-5.65 9.503h19.86v10.834c0 .714.281 1.398.782 1.903.5.505 1.18.788 1.888.788h29.918V87.857H39.963a2.955 2.955 0 01-1.644-.503 2.99 2.99 0 01-1.092-1.335 3.016 3.016 0 01.62-3.255zm.397 20.219H36.32v-9.737h-.856v-.952l.856-.766h1.924v11.455zm17.695-10.35l1.28-1.126h4.424l1.027 1.104v1.87h-1.924v-1.276h-2.883v2.76h3.526l1.281 1.125v4.927l-1.28.966h-4.17l-1.309-1.145.028-9.206zm-8.012-1.126h1.91v5.838h2.404v-5.838h1.924v5.838h.685v1.719h-.685v3.899h-1.924v-3.9h-3.02l-1.294-1.124v-6.432zm-2.74 0l1.281 1.146v9.185l-1.28 1.125h-4.424l-1.027-1.105v-1.87h1.924v1.277h2.883v-2.843h-3.527l-1.28-1.125v-4.83l1.28-.953 4.17-.007zm82.301 1.737h-2.89v8.026h2.89v-8.026z" fill="#D73B3B"/><path d="M159.024 83.978l5.649-9.662h-28.397a2.15 2.15 0 00-1.202.363 2.177 2.177 0 00-.801.974 2.19 2.19 0 00.455 2.377l4.609 4.726a3.011 3.011 0 01-.477 4.593c-.488.326-1.061.5-1.646.5h-24.953v19.129h29.931c.709 0 1.388-.284 1.889-.788.5-.505.782-1.19.782-1.903v-10.8h19.824l-5.663-9.51zM121.32 97.296l-1.28 1.125h-3.534v2.843h2.89v-1.001h1.924v2.719h-6.738v-5.134l1.287-1.145h3.527v-3.45h-2.89v1.69h-1.924v-2.284l1.287-1.125h4.171l1.28 1.145v4.617zm8.081 4.562l-1.281 1.124h-4.17l-1.281-1.124v-9.185l1.281-1.146h4.17l1.281 1.146v9.185zm8.087-4.562l-1.281 1.125h-3.526v2.843h2.889v-1.001h1.918v2.719h-6.732v-5.134l1.281-1.145h3.533v-3.45h-2.889v1.69h-1.925v-2.284l1.281-1.125h4.17l1.281 1.145v4.617zm4.108 5.686h-1.917v-9.737h-.911v-.952l.856-.766h1.918l.054 11.455zm-80.852-5.291h-2.883v3.575h2.883v-3.575zm45.213-40.613v-.351H89.474v8.784h16.483V57.08z" fill="#D73B3B"/><path d="M167.009 83.942l9.676-16.528h-35.814V47.25a22.075 22.075 0 00-3.34-11.723 21.842 21.842 0 00-9.033-8.117h12.449V.373H32.985v38.39h24.09c-1.369 3.491-2.896 7.01-4.464 10.606a190.802 190.802 0 00-7.533 19.08 8.962 8.962 0 00-4.197-1.035H.479l9.676 16.528-9.758 16.444h25.076v3.92a9.655 9.655 0 002.796 6.788 9.51 9.51 0 006.736 2.818h27.22c1.37 5.486 5.3 10.869 15.668 10.869h3.554c.245-.005.49.012.732.048l.98 2.243a5.962 5.962 0 002.187 2.596 5.9 5.9 0 006.479 0 5.962 5.962 0 002.187-2.596l.986-2.25c.248-.036.497-.052.747-.048h3.547c10.367 0 14.325-5.383 15.668-10.869h27.233a9.504 9.504 0 006.734-2.818 9.646 9.646 0 002.791-6.788v-3.913h25.084l-9.793-16.444zm-18.612 13.111v7.26a6.299 6.299 0 01-1.823 4.429 6.204 6.204 0 01-4.395 1.837h-30.02c-1.014 10.862-9.847 10.869-12.867 10.869h-3.547c-2.87 0-3.376 1.131-3.616 1.676l-1.143 2.616a2.598 2.598 0 01-.963 1.152c-.426.28-.925.426-1.434.421a2.558 2.558 0 01-1.437-.423 2.59 2.59 0 01-.96-1.157l-1.157-2.643c-.212-.483-.726-1.642-3.588-1.642h-3.554c-3.027 0-11.854 0-12.867-10.869h-30.02a6.204 6.204 0 01-4.395-1.837 6.3 6.3 0 01-1.824-4.429v-7.28H6.245l7.785-13.078L6.3 70.748h34.608a5.666 5.666 0 013.163.96 5.732 5.732 0 012.103 2.567c.185.442.316.906.39 1.38 2.054-8.84 5.615-17.004 9.08-24.96 3.924-8.971 7.65-17.535 9.142-26.624h-4.91v11.352H36.3V3.68h101.313v20.364h-28.117v4.575h9.587a18.42 18.42 0 0113.074 5.457 18.707 18.707 0 015.415 13.175v21.703c0 .608-.028 1.208-.082 1.801h33.41l-7.731 13.208 7.786 13.07-22.557.021z" fill="#D73B3B"/><path d="M44.564 93.244H41.68v3.464h2.883v-3.464z" fill="#D73B3B"/></svg>0493 84.2969C37.1597 83.7179 37.4371 83.1847 37.8469 82.7639ZM38.244 102.983H36.3198V93.2463H35.4639V92.294L36.3198 91.5279H38.244V102.983ZM55.9386 92.6321L57.2191 91.5073H61.6428L62.67 92.6114V94.4815H60.7458V93.2049H57.8628V95.9652H61.3894L62.67 97.09V102.017L61.3894 102.983H57.2191L55.9112 101.838L55.9386 92.6321ZM47.9268 91.5073H49.8373V97.3454H52.2409V91.5073H54.1651V97.3454H54.8498V99.0636H54.1651V102.963H52.2409V99.0636H49.221L47.9268 97.9388V91.5073ZM45.1877 91.5073L46.4682 92.6528V101.838L45.1877 102.963H40.764L39.7368 101.858V99.9883H41.6611V101.265H44.544V98.4219H41.0174L39.7368 97.297V92.4665L41.0174 91.5142L45.1877 91.5073Z" fill="#D73B3B"/>
<path d="M127.488 93.2441H124.598V101.27H127.488V93.2441Z" fill="#D73B3B"/>
<path d="M159.024 83.9775L164.673 74.3164H136.276C135.848 74.3149 135.43 74.441 135.074 74.6788C134.717 74.9166 134.439 75.2554 134.273 75.6525C134.108 76.0497 134.062 76.4873 134.143 76.9103C134.224 77.3332 134.428 77.7225 134.728 78.0291L139.337 82.7561C139.747 83.1773 140.024 83.7112 140.135 84.2907C140.245 84.8703 140.182 85.4698 139.956 86.0138C139.729 86.5579 139.348 87.0223 138.86 87.3488C138.372 87.6753 137.799 87.8493 137.214 87.8489H112.261V106.978H142.192C142.901 106.978 143.58 106.694 144.081 106.19C144.581 105.685 144.863 105 144.863 104.287V93.4869H164.687L159.024 83.9775ZM121.32 97.2961L120.04 98.4209H116.506V101.264H119.396V100.263H121.32V102.982H114.582V97.8482L115.869 96.7026H119.396V93.2522H116.506V94.9429H114.582V92.6588L115.869 91.5339H120.04L121.32 92.6795V97.2961ZM129.401 101.858L128.12 102.982H123.95L122.669 101.858V92.6726L123.95 91.527H128.12L129.401 92.6726V101.858ZM137.488 97.2961L136.207 98.4209H132.681V101.264H135.57V100.263H137.488V102.982H130.756V97.8482L132.037 96.7026H135.57V93.2522H132.681V94.9429H130.756V92.6588L132.037 91.5339H136.207L137.488 92.6795V97.2961ZM141.596 102.982H139.679V93.2453H138.768V92.293L139.624 91.527H141.542L141.596 102.982Z" fill="#D73B3B"/>
<path d="M60.7444 97.6914H57.8615V101.266H60.7444V97.6914Z" fill="#D73B3B"/>
<path d="M105.957 57.0785V56.7266H105.6H89.8232H89.474V57.0785V65.5113H105.957V57.0785Z" fill="#D73B3B"/>
<path d="M167.009 83.9417L176.685 67.4143H140.871V47.2502C140.879 43.103 139.721 39.0384 137.531 35.5272C135.341 32.016 132.209 29.2017 128.498 27.4104H140.947V0.373047H32.9851V38.7622H57.0755C55.706 42.254 54.1789 45.7734 52.6108 49.3687C49.7603 55.5874 47.2458 61.957 45.0782 68.4494C43.7829 67.7666 42.3423 67.4114 40.8806 67.4143H0.478807L10.1547 83.9417L0.396637 100.386H25.4731V104.306C25.4767 106.853 26.4822 109.294 28.269 111.094C30.0558 112.895 32.4782 113.908 35.0052 113.912H62.225C63.5945 119.398 67.5252 124.781 77.8927 124.781H81.4466C81.6918 124.776 81.9369 124.793 82.1794 124.829L83.1586 127.072C83.6224 128.133 84.3824 129.035 85.3459 129.668C86.3095 130.301 87.4351 130.638 88.5855 130.638C89.7358 130.638 90.8614 130.301 91.825 129.668C92.7885 129.035 93.5485 128.133 94.0123 127.072L94.9983 124.822C95.2455 124.786 95.4951 124.77 95.7448 124.774H99.2919C109.659 124.774 113.617 119.391 114.96 113.905H142.193C144.719 113.901 147.141 112.888 148.927 111.087C150.713 109.286 151.717 106.845 151.718 104.299V100.386H176.802L167.009 83.9417ZM148.397 97.0532V104.313C148.395 105.974 147.74 107.567 146.574 108.742C145.408 109.916 143.828 110.577 142.179 110.579H112.159C111.145 121.441 102.312 121.448 99.2919 121.448H95.7448C92.8756 121.448 92.3688 122.579 92.1292 123.124L90.9856 125.74C90.7844 126.211 90.4497 126.612 90.0232 126.892C89.5968 127.172 89.0978 127.318 88.5888 127.313C88.079 127.319 87.579 127.171 87.1523 126.89C86.7257 126.609 86.3915 126.206 86.1921 125.733L85.0349 123.09C84.8226 122.607 84.309 121.448 81.4466 121.448H77.8927C74.866 121.448 66.0392 121.448 65.0257 110.579H35.0052C33.3567 110.577 31.7762 109.916 30.6106 108.742C29.4449 107.567 28.7893 105.974 28.7874 104.313V97.0326H6.2446L14.0305 83.9555L6.2994 70.7474H40.908C42.0332 70.7455 43.1337 71.0793 44.0708 71.7069C45.008 72.3345 45.7398 73.2276 46.1739 74.2737C46.3587 74.7162 46.4897 75.1796 46.5642 75.6538C48.6185 66.8139 52.1793 58.6503 55.6443 50.6937C59.5681 41.7226 63.2933 33.1587 64.7861 24.0704H59.8762V35.4222H36.2994V3.67851H137.612V24.0428H109.495V28.618H119.082C123.985 28.618 128.688 30.5811 132.156 34.0753C135.623 37.5695 137.571 42.3086 137.571 47.2502V68.9532C137.571 69.5605 137.543 70.1608 137.489 70.7543H170.899L163.168 83.9624L170.954 97.0326L148.397 97.0532Z" fill="#D73B3B"/>
<path d="M44.5639 93.2441H41.681V96.7084H44.5639V93.2441Z" fill="#D73B3B"/>
</svg>
